!!!!SEGMENT: pl-kk--kk-i-336--002_anonim--puer-natus.krn
!!!cenid: 17xx:2053
!!!COM: Anonim
!!!COM-rismID:
!!!CDT:
!!!CNT:
!!!OTL: Puer natus
!!!PDT:
!!!AGN: Sacred
!!!SMS-siglum: PL-Kk
!!!SMS-shelfmark: Kk.I.336
!!!SMS-shelfwork: 002 W
!!!SMS-variant:
!!!SMS-altvar:
!!!NIFC-rismSourceID: 1001143663
!!!NIFC-islandoraID: pl-kk:5623
!!!URL-pdf-islandora: https://repozytorium.nifc.pl/islandora/object/pl-kk%3A5623/datastream/PDF/view
!!!URL-scan: https://polish.musicsources.pl/pl/lokalizacje/galeria/rekopisy/5953 @EN{Scan on Polish Music Herritage in Open Access Website} @PL{Skany w portalu Dziedzictwo Muzyki Polskiej w otwartym dostępie}
!!!ONB-nifc: UWAGA: utwory w zbiorze: 1. Ave Hierarchia, 2. Puer natus
!!!AIN: 1 alto 1 empty 2 tenor 1 vox
!!!key:
**kern	**text	**text	**text	**text	**text	**text	**kern	**text	**text	**text	**text	**text	**text	**kern	**text	**text	**text	**text	**text	**text	**kern	**text	**text	**text	**text	**text	**text	**kern	**text	**text	**text	**text	**text	**text
*part5	*part5	*part5	*part5	*part5	*part5	*part5	*part4	*part4	*part4	*part4	*part4	*part4	*part4	*part3	*part3	*part3	*part3	*part3	*part3	*part3	*part2	*part2	*part2	*part2	*part2	*part2	*part2	*part1	*part1	*part1	*part1	*part1	*part1	*part1
*staff5	*staff5	*staff5	*staff5	*staff5	*staff5	*staff5	*staff4	*staff4	*staff4	*staff4	*staff4	*staff4	*staff4	*staff3	*staff3	*staff3	*staff3	*staff3	*staff3	*staff3	*staff2	*staff2	*staff2	*staff2	*staff2	*staff2	*staff2	*staff1	*staff1	*staff1	*staff1	*staff1	*staff1	*staff1
*Iempty	*	*	*	*	*	*	*Itenor	*	*	*	*	*	*	*Itenor	*	*	*	*	*	*	*Ialto	*	*	*	*	*	*	*Ivox	*	*	*	*	*	*
*I"Baſso a s. vel. t. G.G.G.	*	*	*	*	*	*	*I"Tenore 2do ad libitum.	*	*	*	*	*	*	*I"Tenore 1o.	*	*	*	*	*	*	*I"Alto.	*	*	*	*	*	*	*I"Canto.	*	*	*	*	*	*
*I'B	*	*	*	*	*	*	*I'T 2	*	*	*	*	*	*	*I'T 1	*	*	*	*	*	*	*I'A	*	*	*	*	*	*	*I'S	*	*	*	*	*	*
*clefF4	*	*	*	*	*	*	*clefC1	*	*	*	*	*	*	*clefC4	*	*	*	*	*	*	*clefC3	*	*	*	*	*	*	*clefC1	*	*	*	*	*	*
*k[]	*	*	*	*	*	*	*k[]	*	*	*	*	*	*	*k[]	*	*	*	*	*	*	*k[]	*	*	*	*	*	*	*k[]	*	*	*	*	*	*
*A:	*	*	*	*	*	*	*A:	*	*	*	*	*	*	*A:	*	*	*	*	*	*	*A:	*	*	*	*	*	*	*A:	*	*	*	*	*	*
*M2/1	*	*	*	*	*	*	*M2/1	*	*	*	*	*	*	*M2/1	*	*	*	*	*	*	*M2/1	*	*	*	*	*	*	*M2/1	*	*	*	*	*	*
*met(C|)	*	*	*	*	*	*	*met(C|)	*	*	*	*	*	*	*met(C|)	*	*	*	*	*	*	*met(C|)	*	*	*	*	*	*	*met(C|)	*	*	*	*	*	*
=1-	=1-	=1-	=1-	=1-	=1-	=1-	=1-	=1-	=1-	=1-	=1-	=1-	=1-	=1-	=1-	=1-	=1-	=1-	=1-	=1-	=1-	=1-	=1-	=1-	=1-	=1-	=1-	=1-	=1-	=1-	=1-	=1-	=1-	=1-
2r	.	.	.	.	.	.	2r	.	.	.	.	.	.	2r	.	.	.	.	.	.	2r	.	.	.	.	.	.	2r	.	.	.	.	.	.
!LO:TX:t=P:problem=kreska pseudotaktowa	!	!	!	!	!	!	!LO:TX:t=P:problem=kreska pseudotaktowa	!	!	!	!	!	!	!LO:TX:t=P:problem=kreska pseudotaktowa	!	!	!	!	!	!	!LO:TX:t=P:problem=kreska pseudotaktowa	!	!	!	!	!	!	!LO:TX:t=P:problem=kreska pseudotaktowa	!	!	!	!	!	!
2A\	Pu-	Aſ-	Cog-	Re-	In	Lau-	2e/	Pu-	Aſ-	Cog-	Re-	In	Lau-	2c\	Pu-	Aſ-	Cog-	Re-	In	Lau-	2c\	Pu-	Aſ-	Cog-	Re-	In	Lau-	2a\	Pu-	Aſ-	Cog-	Re-	In	Lau-
2A\	-er	-ſum-	-no-	-ges	hoc	-de-	2a\	-er	-ſum-	-no-	-ges	hoc	-de-	2c\	-er	-ſum-	-no-	-ges	hoc	-de-	2c\	-er	-ſum-	-no-	-ges	hoc	-de-	2ccn\	-er	-ſum-	-no-	-ges	hoc	-de-
!LO:TX:t=P:problem=kreska pseudotaktowa	!	!	!	!	!	!	!LO:TX:t=P:problem=kreska pseudotaktowa	!	!	!	!	!	!	!LO:TX:t=P:problem=kreska pseudotaktowa	!	!	!	!	!	!	!LO:TX:t=P:problem=kreska pseudotaktowa	!	!	!	!	!	!	!	!	!	!	!	!	!
2A\	na-	-pſit	-vit	de	na-	-t(ur)	2a\	na-	-pſit	-vit	de	na-	-t(ur)	2A\	na-	-pſit	-vit	de	na-	-t(ur)	2c\	na-	-pſit	-vit	de	na-	-t(ur)	2cc\	na-	-pſit	-vit	de	na-	-t(ur)
=2-	=2-	=2-	=2-	=2-	=2-	=2-	=2-	=2-	=2-	=2-	=2-	=2-	=2-	=2-	=2-	=2-	=2-	=2-	=2-	=2-	=2-	=2-	=2-	=2-	=2-	=2-	=2-	=2-	=2-	=2-	=2-	=2-	=2-	=2-
2E\	-t(us)	for-	Bos	Sa-	-ta-	S(an-	2g#/	-t(us)	for-	Bos	Sa-	-ta-	S(an-	2B\	-t(us)	for-	Bos	Sa-	-ta-	S(an-	2g\	-t(us)	for-	Bos	Sa-	-ta-	S(an-	2b\	-t(us)	for-	Bos	Sa-	-ta-	S(an-
!	!	!	!	!	!	!	!	!	!	!	!	!	!	!	!	!	!	!	!	!	!LO:TX:a:t=g.	!	!	!	!	!	!	!	!	!	!	!	!	!
2E\	in	-ma(m)	et	-va	-li	-c)ta	2g#/	in	-ma(m)	et	-va	-li	-c)ta	2B\	in	-ma(m)	et	-va	-li	-c)ta	2g\	in	-ma(m)	et	-va	-li	-c)ta	2b\	in	-ma(m)	et	-va	-li	-c)ta
1A\	Beth-	Ho-	a-	ve-	gau-	Tri-	1a\	Beth-	Ho-	a-	ve-	gau-	Tri-	1A\	Beth-	Ho-	a-	ve-	gau-	Tri-	1e\	Beth-	Ho-	a-	ve-	gau-	Tri-	1ccn\	Beth-	Ho-	a-	ve-	gau-	Tri-
=3-	=3-	=3-	=3-	=3-	=3-	=3-	=3-	=3-	=3-	=3-	=3-	=3-	=3-	=3-	=3-	=3-	=3-	=3-	=3-	=3-	=3-	=3-	=3-	=3-	=3-	=3-	=3-	=3-	=3-	=3-	=3-	=3-	=3-	=3-
2.G\	-li-	-mi-	-ſi-	-ni-	di-	-ni-	2.b\	-li-	-mi-	-ſi-	-ni-	di-	-ni-	2.d\	-li-	-mi-	-ſi-	-ni-	di-	-ni-	2.g\	-li-	-mi-	-ſi-	-ni-	di-	-ni-	2.dd\	-li-	-mi-	-ſi-	-ni-	di-	-ni-
!LO:TX:t=P:problem=kreska pseudotaktowa	!	!	!	!	!	!	!	!	!	!	!	!	!	!	!	!	!	!	!	!	!	!	!	!	!	!	!	!	!	!	!	!	!	!
4G\	.	.	.	.	.	.	4b\	.	.	.	.	.	.	4d\	.	.	.	.	.	.	4g\	.	.	.	.	.	.	4dd\	.	.	.	.	.	.
!	!	!	!	!	!	!	!LO:TX:t=P:problem=kreska pseudotaktowa	!	!	!	!	!	!	!LO:TX:t=P:problem=kreska pseudotaktowa	!	!	!	!	!	!	!LO:TX:t=P:problem=kreska pseudotaktowa	!	!	!	!	!	!	!LO:TX:t=P:problem=kreska pseudotaktowa	!	!	!	!	!	!
1C/	-em.	-niſ	-n(us)	-unt	-o	-tas	1cc\	-em.	-niſ	-nus	-unt	-o	-tas	1c\	-em.	-niſ	-nus	-unt	-o	-tas	1e\	-em.	-niſ	-nus	-unt	-o	-tas	1ee\	-em	-niſ	-nus	-unt	-o	-tas
=4-	=4-	=4-	=4-	=4-	=4-	=4-	=4-	=4-	=4-	=4-	=4-	=4-	=4-	=4-	=4-	=4-	=4-	=4-	=4-	=4-	=4-	=4-	=4-	=4-	=4-	=4-	=4-	=4-	=4-	=4-	=4-	=4-	=4-	=4-
2r	.	.	.	.	.	.	2r	.	.	.	.	.	.	2r	.	.	.	.	.	.	2r	.	.	.	.	.	.	2r	.	.	.	.	.	.
!LO:TX:t=P:problem=kreska pseudotaktowa	!	!	!	!	!	!	!	!	!	!	!	!	!	!	!	!	!	!	!	!	!LO:TX:t=P:problem=kreska pseudotaktowa	!	!	!	!	!	!	!LO:TX:t=P:problem=kreska pseudotaktowa	!	!	!	!	!	!
2A\	Un-	Ver-	quod	au-	Be-	De-	2ee\	Un-	Ver-	quod	au-	Be-	De-	2c\	Un-	Ver-	quod	au-	Be-	De-	2e\	Un-	Ver-	quod	au-	Be-	De-	2cc\	Un-	Ver-	quod	au-	Be-	De-
2c\	-de	-bum	Pu-	-ru(m)	-ne-	-o	2cc\	-de	-bum	Pu-	-ru(m)	-ne-	-o	2c\	-de	-bum	Pu-	-ru(m)	-ne-	-o	2e\	-de	-bum	Pu-	-ru(m)	-ne-	-o	2ee\	-de	-bu(m)	Pu-	-ru(m)	-ne-	-o
!	!	!	!	!	!	!	!LO:TX:t=P:problem=kreska pseudotaktowa	!	!	!	!	!	!	!LO:TX:t=P:problem=kreska pseudotaktowa	!	!	!	!	!	!	!LO:TX:t=P:problem=kreska pseudotaktowa	!	!	!	!	!	!	!	!	!	!	!	!	!
2c\	gau-	Pa-	-er	thuſ	-di-	di-	2cc\	gau-	Pa-	-er	thuſ	-di-	di-	2c\	gau-	Pa-	-er	thuſ	-di-	di-	2g\	gau-	Pa-	-er	thuſ	-di-	di-	2ee\	gau-	Pa-	-er	thuſ	-di-	di-
=5-	=5-	=5-	=5-	=5-	=5-	=5-	=5-	=5-	=5-	=5-	=5-	=5-	=5-	=5-	=5-	=5-	=5-	=5-	=5-	=5-	=5-	=5-	=5-	=5-	=5-	=5-	=5-	=5-	=5-	=5-	=5-	=5-	=5-	=5-
2B\	-det	-tris	e-	myrr-	-ca-	-ca-	2g/	-det	-tris	e-	myrr-	-ca-	-ca-	2d\	-det	-tris	e-	myrr-	-ca-	-ca-	2g\	-det	-tris	e-	myrr-	-ca-	-ca-	2dd\	-det	-tris	e-	myrr-	-ca-	-ca-
!LO:TX:t=P:problem=kreska pseudotaktowa	!	!	!	!	!	!	!LO:TX:t=P:problem=kreska pseudotaktowa	!	!	!	!	!	!	!	!	!	!	!	!	!	!	!	!	!	!	!	!	!LO:TX:t=P:problem=kreska pseudotaktowa	!	!	!	!	!	!
2B\	Je-	al-	-rat	-ha(m)	-m(us)	-m(us)	2g/	Je-	al-	-rat	-ha(m)	-m(us)	-m(us)	2d\	Je-	al-	-rat	-ha(m)	-m(us)	-m(us)	2g\	Je-	al-	-rat	-ha(m)	-m(us)	-m(us)	2dd\	Je-	al-	-rat	-ha(m)	-m(us)	-m(us)
2.c\	-ru-	-tiſ-	D(o-	of-	Do-	gra-	2.cc\	-ru-	-tiſ-	D(o-	of-	D(o-	gra-	2.c\	-ru-	-tiſ-	D(o-	of-	D(o-	gra-	2.e\	-ru-	-tiſ-	D(o-	of-	D(o-	gra-	2.ee\	-ru-	-tiſ-	D(o-	of-	D(o-	gra-
!	!	!	!	!	!	!	!LO:TX:t=P:problem=kreska pseudotaktowa	!	!	!	!	!	!	!	!	!	!	!	!	!	!LO:TX:t=P:problem=kreska pseudotaktowa	!	!	!	!	!	!	!	!	!	!	!	!	!
4c\	-ſa-	-ſi-	-mi-	-fe-	-mi-	-ti-	4cc\	-ſa-	-ſi-	-mi-	-fe-	-mi-	-ti-	4c\	-ſa-	-ſi-	-mi-	-fe-	-mi-	-ti-	4e\	-ſa-	-ſi-	-mi-	-fe-	-mi-	-ti-	4ee\	-ſa-	-ſi-	-mi-	-fe-	-mi-	-ti-
=6-	=6-	=6-	=6-	=6-	=6-	=6-	=6-	=6-	=6-	=6-	=6-	=6-	=6-	=6-	=6-	=6-	=6-	=6-	=6-	=6-	=6-	=6-	=6-	=6-	=6-	=6-	=6-	=6-	=6-	=6-	=6-	=6-	=6-	=6-
!	!	!	!	!	!	!	!	!	!	!	!	!	!	!	!	!	!	!	!	!	!	!	!	!	!	!	!	!LO:TX:t=P:problem=kreska pseudotaktowa	!	!	!	!	!	!
2G,\	-lem	-mi	-nus)	-runt.	-no	-as	2b,\	-lem	-mi	-nus)	-runt.	-no)	-as	2d,\	-lem	-mi	-nus)	-runt.	-no)	-as	2g,\	-lem	-mi	-nus)	-runt.	-no)	-as	2dd\	-lem	-mi	-nus)	-runt.	-no)	-as
!LO:TX:t=P:problem=kreska pseudotaktowa	!	!	!	!	!	!	!LO:TX:t=P:problem=kreska pseudotaktowa	!	!	!	!	!	!	!LO:TX:t=P:problem=kreska pseudotaktowa	!	!	!	!	!	!	!LO:TX:t=P:problem=kreska pseudotaktowa	!	!	!	!	!	!	!LO:TX:t=P:problem=kreska pseudotaktowa	!	!	!	!	!	!
2G\	Lae-	.	.	.	.	.	2b\	Lae-	.	.	.	.	.	2d\	Lae-	.	.	.	.	.	2g\	Lae-	.	.	.	.	.	2dd\	Lae-	Lae-	.	.	.	.
2.c\	-ta-	.	.	.	.	.	2.cc\	-ta-	.	.	.	.	.	2.c\	-ta-	.	.	.	.	.	2.g\	-ta-	.	.	.	.	.	2.ee\	-ta-	-ta-	.	.	.	.
!	!	!	!	!	!	!	!LO:TX:t=P:problem=kreska pseudotaktowa	!	!	!	!	!	!	!	!	!	!	!	!	!	!	!	!	!	!	!	!	!	!	!	!	!	!	!
4c\	-mi-	.	.	.	.	.	4cc\	-mi-	.	.	.	.	.	4c\	-mi-	.	.	.	.	.	4g\	-mi-	.	.	.	.	.	4ee\	-mi-	-mi-	.	.	.	.
=7-	=7-	=7-	=7-	=7-	=7-	=7-	=7-	=7-	=7-	=7-	=7-	=7-	=7-	=7-	=7-	=7-	=7-	=7-	=7-	=7-	=7-	=7-	=7-	=7-	=7-	=7-	=7-	=7-	=7-	=7-	=7-	=7-	=7-	=7-
2G\	-ni	.	.	.	.	.	2b,\	-ni	.	.	.	.	.	2d,\	-ni	.	.	.	.	.	2g\	-ni	.	.	.	.	.	2dd,\	-ni	-ni	.	.	.	.
!	!	!	!	!	!	!	!	!	!	!	!	!	!	!LO:TX:t=P:problem=kreska pseudotaktowa	!	!	!	!	!	!	!LO:TX:t=P:problem=kreska pseudotaktowa	!	!	!	!	!	!	!LO:TX:t=P:problem=kreska pseudotaktowa	!	!	!	!	!	!
2G\	in	.	.	.	.	.	2b\	in	.	.	.	.	.	2d\	in	.	.	.	.	.	2g\	in	.	.	.	.	.	2dd\	in	in	.	.	.	.
2.A\	d(o-	.	.	.	.	.	2.a/	d(o-	.	.	.	.	.	2.A/	d(o-	.	.	.	.	.	2.e\	d(o-	.	.	.	.	.	2.cc\	Do-	D(o-	.	.	.	.
*custos:E	*	*	*	*	*	*	*	*	*	*	*	*	*	*	*	*	*	*	*	*	*	*	*	*	*	*	*	*	*	*	*	*	*	*
!LO:TX:t=P:problem=kreska pseudotaktowa	!	!	!	!	!	!	!LO:TX:t=P:problem=kreska pseudotaktowa	!	!	!	!	!	!	!	!	!	!	!	!	!	!LO:TX:t=P:problem=kreska pseudotaktowa	!	!	!	!	!	!	!	!	!	!	!	!	!
4A\	-mi-	.	.	.	.	.	4a/	-mi-	.	.	.	.	.	4A/	-mi-	.	.	.	.	.	4e\	-mi-	.	.	.	.	.	4cc\	-mi-	-mi)-	.	.	.	.
!	!LO:LB:g=original	!	!	!	!	!	!	!	!	!	!	!	!	!	!	!	!	!	!	!	!	!	!	!	!	!	!	!	!	!	!	!	!	!
=8-	=8-	=8-	=8-	=8-	=8-	=8-	=8-	=8-	=8-	=8-	=8-	=8-	=8-	=8-	=8-	=8-	=8-	=8-	=8-	=8-	=8-	=8-	=8-	=8-	=8-	=8-	=8-	=8-	=8-	=8-	=8-	=8-	=8-	=8-
2E\	-n)o	.	.	.	.	.	2g/	-n)o	.	.	.	.	.	2B\	-n)o	.	.	.	.	.	2e\	-n)o	.	.	.	.	.	2b,\	-no	no	.	.	.	.
!LO:TX:t=P:problem=kreska pseudotaktowa	!	!	!	!	!	!	!LO:TX:t=P:problem=kreska pseudotaktowa	!	!	!	!	!	!	!	!	!	!	!	!	!	!	!	!	!	!	!	!	!	!	!	!	!	!	!
2E\	in	.	.	.	.	.	2g/	in	.	.	.	.	.	2B\	in	.	.	.	.	.	2e\	in	.	.	.	.	.	2b\	in	in	.	.	.	.
!	!	!	!	!	!	!	!	!	!	!	!	!	!	!LO:LB:g=original	!	!	!	!	!	!	!LO:LB:g=original	!	!	!	!	!	!	!	!	!	!	!	!	!
!	!	!	!	!	!	!	!	!	!	!	!	!	!	!	!	!	!	!	!	!	!	!	!	!	!	!	!	!LO:TX:t=P:problem=kreska pseudotaktowa	!	!	!	!	!	!
!	!	!	!	!	!	!	!LO:TX:t=P:problem=kreska pseudotaktowa	!	!	!	!	!	!	!	!	!	!	!	!	!	!	!	!	!	!	!	!	!LO:TX:a:t=V.	!	!	!	!	!	!
1C/	hoc	.	.	.	.	.	1cc\	hoc	.	.	.	.	.	(1c\	hoc	.	.	.	.	.	1e\	hoc	.	.	.	.	.	1ee\	hoc	hoc	.	.	.	.
!	!	!	!	!	!	!	!LO:LB:g=original	!	!	!	!	!	!	!	!	!	!	!	!	!	!	!	!	!	!	!	!	!LO:LB:g=original	!	!	!	!	!	!
=9-	=9-	=9-	=9-	=9-	=9-	=9-	=9-	=9-	=9-	=9-	=9-	=9-	=9-	=9-	=9-	=9-	=9-	=9-	=9-	=9-	=9-	=9-	=9-	=9-	=9-	=9-	=9-	=9-	=9-	=9-	=9-	=9-	=9-	=9-
!	!	!	!	!	!	!	!	!	!	!	!	!	!	!	!	!	!	!	!	!	!	!	!	!	!	!	!	!LO:TX:a:t=de	!	!	!	!	!	!
2D/	no-	.	.	.	.	.	2b\	no-	.	.	.	.	.	2Fn/)	no-	.	.	.	.	.	2f\	no-	.	.	.	.	.	2dd\	no-	no-	.	.	.	.
!LO:TX:t=P:problem=kreska pseudotaktowa	!	!	!	!	!	!	!	!	!	!	!	!	!	!	!	!	!	!	!	!	!	!	!	!	!	!	!	!	!	!	!	!	!	!
2AA/	-vo	.	.	.	.	.	2a\	-vo	.	.	.	.	.	2A/	-vo	.	.	.	.	.	2e\	-vo	.	.	.	.	.	2cc\	-vo	-vo	.	.	.	.
!	!	!	!	!	!	!	!	!	!	!	!	!	!	!LO:TX:t=P:problem=kreska pseudotaktowa	!	!	!	!	!	!	!	!	!	!	!	!	!	!	!	!	!	!	!	!
1E\	an-	.	.	.	.	.	2a\	an-	.	.	.	.	.	1B\	an-	.	.	.	.	.	1e\	an-	.	.	.	.	.	1b\	an-	an-	.	.	.	.
!	!	!	!	!	!	!	!LO:TX:a:t=P:problem=# above	!	!	!	!	!	!	!	!	!	!	!	!	!	!	!	!	!	!	!	!	!	!	!	!	!	!	!
.	.	.	.	.	.	.	2g#X/	.	.	.	.	.	.	.	.	.	.	.	.	.	.	.	.	.	.	.	.	.	.	.	.	.	.	.
=10-	=10-	=10-	=10-	=10-	=10-	=10-	=10-	=10-	=10-	=10-	=10-	=10-	=10-	=10-	=10-	=10-	=10-	=10-	=10-	=10-	=10-	=10-	=10-	=10-	=10-	=10-	=10-	=10-	=10-	=10-	=10-	=10-	=10-	=10-
!LO:TX:t=P:problem=podwójna fermata powyżej i poniżej	!	!	!	!	!	!	!LO:TX:t=P:problem=podwójna fermata powyżej i poniżej	!	!	!	!	!	!	!	!	!	!	!	!	!	!LO:TX:t=P:problem=podwójna fermata powyżej i poniżej	!	!	!	!	!	!	!LO:TX:t=P:problem=podwójna fermata powyżej i poniżej	!	!	!	!	!	!
0AA/;<	-no.	.	.	.	.	.	0a\;;	-no.	.	.	.	.	.	0c#X\;	-no.	.	.	.	.	.	0e\;;	-no.	.	.	.	.	.	0cc#X\;	-no.	-no.	.	.	.	.
=-	=-	=-	=-	=-	=-	=-	=-	=-	=-	=-	=-	=-	=-	=-	=-	=-	=-	=-	=-	=-	=-	=-	=-	=-	=-	=-	=-	=-	=-	=-	=-	=-	=-	=-
*-	*-	*-	*-	*-	*-	*-	*-	*-	*-	*-	*-	*-	*-	*-	*-	*-	*-	*-	*-	*-	*-	*-	*-	*-	*-	*-	*-	*-	*-	*-	*-	*-	*-	*-
!!!system-decoration: [(s1,s2,s3,s4,s5)]
!!!RDF**kern: > = above
!!!RDF**kern: < = below
!!!EED: Leszek Kubiak
!!!EEV: 2021-03-05
!!!ENC: Tomasz Grochalski
!!!END: 2021-02-17
